X: 24
T:Jack Cameron
M:2/4
L:1/16
K:A
AB|cAce dcBA|cAce fgaf|e^def ecAB|c2B2 B2AB|
cAce dcBA|cAce fgaf|e^def ecAB|c2A2 A2:|
|:ce|agab agfe|dcde fagf|ecaf ecAB|c2B2 B2e2|
agab agfe|dcde fagf|ecaf ecAB|c2A2 A2:|
